X:04
T:04. Chaines des Dames
L:1/8
Q:1/4=110
M:6/8
I:linebreak $
K:F
A |:"Dm" A^GA d2 e | fgf"Am" efe |"Dm" A^GA d2 e | fgf"Am" e3 |$"Dm" ABA f3 | efe d2 d | 
^cde d2 d | ^cde d3 :|$"D" A=Bc d3- | de^f"G" g2 =B |"C" cdc"G" =BcB |"D" A=BA"G" GDG |$ 
"F" GAG a3 | gag f2 f | fed ced | cBG F2 c |:$"F" cdc a3 | gag fgf | cdc"C7" b3 | aba gag |$ 
cdc"F" a2 a | gag fgf |1 fed"C" ced | cBG"F" F2 c :|2 fed"C" ced | cBG"F" F2 z |] 

